X:1
T:Hungarian March / Rákóczi March
C:Hector Berlioz
M:2/4
L:1/8
Q:1/4=144
K:Fm
z c | c>B A>G | F2 z F | F>G AB | c2 zc |
c>B A>G | F2 zA | G>A BG | F2 z2 |
c>c cA | B>B BG | A>A AF | G2 zG |
A>G FG | A>A Ac | B>c BA | F2 z2 |]
